app/img/_src/pays/item-1.svg

<svg width="50" height="50" viewBox="0 0 50 50" fill="none" xmlns="http://www.w3.org/2000/svg">
<path d="M49.7127 0.286035C49.5295 0.10293 49.2811 0 49.022 0L24.9991 0.00126953C24.4599 0.00126953 24.0227 0.438574 24.0227 0.977832V3.77051L14.7659 6.25088C14.2449 6.39053 13.9357 6.92598 14.0754 7.44687L18.8729 25.3514L14.7227 29.5017C14.1944 28.7304 13.3075 28.2231 12.3043 28.2231H2.92959C1.31416 28.2231 0 29.5374 0 31.1527V47.0703C0 48.6857 1.31416 50 2.92959 50H12.3044C13.6768 50 14.8313 49.0512 15.1477 47.7754L16.3088 48.788C17.2052 49.5696 18.3536 50.0001 19.543 50.0001H49.0222C49.5614 50.0001 49.9987 49.5628 49.9987 49.0235V0.976562C49.9985 0.717578 49.8958 0.469141 49.7127 0.286035ZM13.2808 47.0704C13.2808 47.6088 12.8427 48.047 12.3042 48.047H2.92949C2.39102 48.047 1.95293 47.6089 1.95293 47.0704V31.1528C1.95293 30.6144 2.39102 30.1763 2.92949 30.1763H6.64033V41.4258C6.64033 41.965 7.07764 42.4023 7.61689 42.4023C8.15615 42.4023 8.59346 41.965 8.59346 41.4258V30.1763H12.3043C12.8428 30.1763 13.2809 30.6144 13.2809 31.1528V47.0704H13.2808ZM16.2146 7.88467L24.0227 5.79248V9.41113L23.3682 9.58652C23.1179 9.65361 22.9047 9.81719 22.7752 10.0415C22.6457 10.2658 22.6105 10.5323 22.6776 10.7825C23.0529 12.183 22.2188 13.6276 20.8184 14.0029C20.5679 14.0701 20.3543 14.234 20.2249 14.4588C20.0955 14.6835 20.0606 14.9505 20.1283 15.2009L23.9349 29.2964H21.9749L20.9648 25.3448C20.9327 25.219 20.8765 25.1031 20.8012 25.0023L16.2146 7.88467ZM24.0227 13.8896V22.1299L22.2415 15.5347C22.9855 15.1505 23.5944 14.5757 24.0227 13.8896ZM38.0523 48.0469H19.5428C18.8255 48.0469 18.1328 47.7873 17.5922 47.3159L15.2339 45.2592V31.7526L19.4974 27.4892L20.2706 30.5145C20.3812 30.9469 20.7705 31.2492 21.2167 31.2492L40.4163 31.2504C41.1702 31.2504 41.7835 31.8637 41.7835 32.6176C41.7835 33.3715 41.1702 33.9848 40.4163 33.9848H30.5784C30.0392 33.9848 29.6019 34.4221 29.6019 34.9613C29.6019 35.5006 30.0392 35.9379 30.5784 35.9379H43.4729C44.2269 35.9379 44.8401 36.5512 44.8401 37.3051C44.8401 38.059 44.2269 38.6723 43.4729 38.6723H30.5784C30.0392 38.6723 29.6019 39.1096 29.6019 39.6488C29.6019 40.1881 30.0392 40.6254 30.5784 40.6254H41.3834C42.1373 40.6254 42.7506 41.2387 42.7506 41.9926C42.7506 42.7465 42.1373 43.3598 41.3834 43.3598H30.5784C30.0392 43.3598 29.6019 43.7971 29.6019 44.3363C29.6019 44.8756 30.0392 45.3129 30.5784 45.3129H38.0523C38.8063 45.3129 39.4195 45.9262 39.4195 46.6801C39.4194 47.4336 38.8062 48.0469 38.0523 48.0469ZM48.0456 48.0469H48.0455H41.0769C41.2662 47.6296 41.3726 47.167 41.3726 46.6797C41.3726 46.1924 41.2662 45.7298 41.0769 45.3125H41.3834C43.2142 45.3125 44.7036 43.823 44.7036 41.9923C44.7036 41.4583 44.5762 40.9537 44.3512 40.5062C45.757 40.1201 46.7931 38.8315 46.7931 37.3049C46.7931 36.5643 46.5491 35.8796 46.1377 35.3269V22.9499C46.1377 22.4106 45.7004 21.9733 45.1611 21.9733C44.6219 21.9733 44.1846 22.4106 44.1846 22.9499V34.0624C43.9551 34.0121 43.7171 33.9848 43.4728 33.9848H43.4407C43.6301 33.5675 43.7364 33.1049 43.7364 32.6176C43.7364 30.7867 42.247 29.2974 40.4162 29.2974H38.8464C40.5133 28.5825 41.684 26.9257 41.684 25C41.684 22.4229 39.5875 20.3264 37.0104 20.3264C34.4335 20.3264 32.3369 22.4229 32.3369 25C32.3369 26.9257 33.5077 28.5825 35.1745 29.2974H29.8363V10.7288C31.5809 10.3486 32.9574 8.97217 33.3375 7.22754H40.6833C41.0634 8.97217 42.4399 10.3486 44.1845 10.7288V13.7649C44.1845 14.3042 44.6218 14.7415 45.161 14.7415C45.7003 14.7415 46.1376 14.3042 46.1376 13.7649V9.85693C46.1376 9.31768 45.7003 8.88037 45.161 8.88037C43.7111 8.88037 42.5317 7.70078 42.5317 6.25098C42.5317 5.71172 42.0944 5.27441 41.5552 5.27441H32.4657C31.9265 5.27441 31.4892 5.71172 31.4892 6.25098C31.4892 7.70088 30.3097 8.88037 28.8599 8.88037C28.3206 8.88037 27.8833 9.31768 27.8833 9.85693V29.2973H25.9759V1.9542L48.0456 1.95312V48.0469ZM37.0106 27.7205C35.5105 27.7205 34.2902 26.5001 34.2902 25.0001C34.2902 23.5001 35.5106 22.2796 37.0106 22.2796C38.5106 22.2796 39.7311 23.5 39.7311 25C39.7311 26.5 38.5107 27.7205 37.0106 27.7205Z" fill="#199525"/>
</svg>

<svg width="50" height="50" fill="none" xmlns="http://www.w3.org/2000/svg"><path d="M49.713.286A.977.977 0 0049.022 0L24.999.001a.977.977 0 00-.976.977V3.77l-9.257 2.48a.976.976 0 00-.69 1.196l4.797 17.904-4.15 4.15a2.929 2.929 0 00-2.419-1.278H2.93A2.933 2.933 0 000 31.153V47.07A2.933 2.933 0 002.93 50h9.374a2.934 2.934 0 002.844-2.225l1.16 1.013A4.92 4.92 0 0019.544 50h29.48a.977.977 0 00.976-.977V.977a.978.978 0 00-.286-.691zM13.28 47.07a.978.978 0 01-.977.977H2.93a.978.978 0 01-.976-.977V31.153c0-.539.438-.977.976-.977h3.71v11.25a.977.977 0 001.953 0v-11.25h3.711c.539 0 .977.438.977.977V47.07zm2.934-39.185l7.808-2.093v3.62l-.655.175a.976.976 0 00-.69 1.196 2.632 2.632 0 01-1.86 3.22.977.977 0 00-.69 1.198l3.807 14.095h-1.96l-1.01-3.951a.974.974 0 00-.164-.343L16.215 7.885zm7.808 6.005v8.24l-1.782-6.595a4.576 4.576 0 001.782-1.645zm14.03 34.157h-18.51c-.717 0-1.41-.26-1.95-.731l-2.36-2.057V31.753l4.264-4.264.774 3.026c.11.432.5.734.946.734l19.2.001a1.369 1.369 0 010 2.734h-9.839a.977.977 0 000 1.954h12.895a1.368 1.368 0 010 2.734H30.578a.977.977 0 000 1.953h10.805a1.369 1.369 0 010 2.734H30.578a.977.977 0 000 1.954h7.474a1.368 1.368 0 010 2.734zm9.993 0h-6.97a3.3 3.3 0 000-2.734h.307c1.831 0 3.32-1.49 3.32-3.32 0-.535-.127-1.04-.352-1.487a3.325 3.325 0 002.442-3.201c0-.74-.244-1.425-.655-1.978V22.95a.977.977 0 00-1.953 0v11.112a3.32 3.32 0 00-.712-.077h-.032a3.3 3.3 0 00.295-1.367 3.323 3.323 0 00-3.32-3.32h-1.57A4.68 4.68 0 0041.684 25a4.679 4.679 0 00-4.674-4.674A4.679 4.679 0 0032.337 25a4.68 4.68 0 002.837 4.297h-5.338V10.73a4.597 4.597 0 003.502-3.501h7.345a4.597 4.597 0 003.502 3.5v3.037a.977.977 0 001.953 0V9.857a.977.977 0 00-.977-.977c-1.45 0-2.63-1.18-2.63-2.629a.977.977 0 00-.976-.977h-9.09a.977.977 0 00-.976.977c0 1.45-1.18 2.63-2.63 2.63a.977.977 0 00-.976.976v19.44h-1.907V1.954h22.07v46.093zM37.01 27.72c-1.5 0-2.72-1.22-2.72-2.72 0-1.5 1.22-2.721 2.72-2.721 1.5 0 2.72 1.22 2.72 2.72 0 1.5-1.22 2.72-2.72 2.72z" fill="#199525"/></svg>
